X:3861
T:M.B.Polka,The. GHW.022
O:england
M:2/4
L:1/8
Q:220
S:George H.Watson,MS,Swanton Abbott,Norfolk,1850-1880
R:Polka
A:Norfolk
N:Possibly ff marking at start of B part. Fine marked at end of C part. D
N:part marked '1st time f, 2nd time ff at start. 2nd. time at end of D
N:marked D.TT.. Last strain re-beamed.CGP
K:G
B/A/B d/^c/d|ed G/F/G| F/E/F c/B/c|ed B2|
B/A/B d/^c/d|ed G/F/G| F/E/F (d/c/B/A/)|GGG z:|
K:D
:Aff>d|A^GBA|Gee>c|AGcB|
Aff>d|A^GBA|Gec>A|ddd z:|
K:G
"FF"B/A/B d/^c/d|ed G/F/G| F/E/F c/B/c|ed B2|
B/A/B d/^c/d|ag A/^G/A|c/B/c e>F|"FINE"Ggg||
K:C
|:e|cG/G/ GE|G3 e|cG/G/ GE|A3 f|
dF/F/ FD|B3A|AG/G/ GE|G3e|
cG/G/ GE|G3 e|cG/G/ GE|A3 f|
dA/A/ Ad|cG/G/ Gc|BfA>B|1c3:||2c3 z||


